public/images/payment/btc.svg

<svg width="138" height="56" viewBox="0 0 138 56" fill="none" xmlns="http://www.w3.org/2000/svg">
<path d="M28.4606 31.4049C26.54 38.9451 18.738 43.534 11.034 41.6537C3.33305 39.7738 -1.35499 32.1363 0.566424 24.5965C2.48604 17.0554 10.2881 12.4661 17.9899 14.346C25.6935 16.2259 30.3811 23.8642 28.4606 31.4049Z" fill="#F7931A"/>
<path d="M20.8532 25.9946C21.1394 24.1217 19.6826 23.1149 17.6907 22.4433L18.3368 19.9063L16.7592 19.5214L16.1301 21.9916C15.7153 21.8904 15.2894 21.795 14.8661 21.7004L15.4997 19.214L13.9229 18.8291L13.2763 21.3652C12.933 21.2887 12.596 21.2131 12.2689 21.1334L12.2706 21.1255L10.0949 20.5938L9.67522 22.2432C9.67522 22.2432 10.8458 22.5058 10.8211 22.522C11.46 22.6782 11.5755 23.0921 11.5562 23.4202L10.8202 26.3104C10.8642 26.3214 10.9213 26.3372 10.9842 26.3619C10.9316 26.3491 10.8754 26.335 10.8175 26.3214L9.78576 30.3702C9.70757 30.5602 9.50941 30.8452 9.06276 30.737C9.07849 30.7594 7.91603 30.4568 7.91603 30.4568L7.13281 32.2245L9.18588 32.7255C9.56783 32.8192 9.94213 32.9173 10.3106 33.0097L9.6577 35.5757L11.2336 35.9606L11.8802 33.4218C12.3106 33.5361 12.7285 33.6417 13.1374 33.7411L12.4931 36.268L14.0707 36.6529L14.7236 34.0917C17.4139 34.59 19.4368 34.389 20.2884 32.0072C20.9745 30.0895 20.2542 28.9833 18.8388 28.262C19.8696 28.0293 20.646 27.3656 20.8532 25.9946ZM17.2485 30.9424C16.761 32.8601 13.4623 31.8234 12.3929 31.5634L13.2592 28.1639C14.3287 28.4252 17.7581 28.9424 17.2485 30.9424ZM17.7365 25.9669C17.2917 27.7113 14.5461 26.825 13.6555 26.6077L14.441 23.5244C15.3316 23.7417 18.1998 24.1472 17.7365 25.9669Z" fill="white"/>
<path d="M42.2737 22.4406C43.4397 22.4406 44.4472 22.6451 45.2937 23.0467C46.1443 23.4522 46.8462 23.9985 47.4093 24.6855C47.9647 25.3761 48.3781 26.1832 48.645 27.1082C48.9101 28.0358 49.0431 29.0329 49.0431 30.1004C49.0431 31.7402 48.7362 33.2893 48.1165 34.7496C47.4969 36.2121 46.6562 37.4806 45.5867 38.5626C44.5182 39.6433 43.2564 40.4953 41.8014 41.1247C40.3487 41.7545 38.7692 42.0695 37.0734 42.0695C36.8541 42.0695 36.4686 42.0633 35.9239 42.0523C35.3793 42.0413 34.7534 41.9863 34.0524 41.8935C33.3469 41.7972 32.601 41.6547 31.8133 41.4638C31.0261 41.2764 30.2783 41.0138 29.5742 40.6804L35.8705 14.7842L41.5098 13.9287L39.2554 23.1184C39.738 22.9055 40.2242 22.7405 40.7095 22.6205C41.1952 22.5021 41.7165 22.4406 42.2737 22.4406ZM37.5434 37.6904C38.3927 37.6904 39.1929 37.4858 39.9447 37.0843C40.6987 36.6822 41.3494 36.1395 41.8944 35.4634C42.4395 34.7843 42.8709 34.0194 43.1854 33.1648C43.4999 32.3102 43.659 31.4186 43.659 30.491C43.659 29.3514 43.4644 28.4625 43.0767 27.8198C42.6889 27.1799 41.9713 26.8579 40.9292 26.8579C40.5877 26.8579 40.1478 26.9217 39.6023 27.0356C39.055 27.1566 38.5652 27.4077 38.1262 27.7855L35.7258 37.5448C35.8705 37.5699 35.9985 37.5936 36.1077 37.616C36.2147 37.6402 36.3329 37.6574 36.4506 37.6693C36.575 37.6829 36.7175 37.6899 36.8896 37.6899C37.0617 37.6899 37.2769 37.6904 37.5434 37.6904ZM54.8913 41.5737H49.505L54.0538 22.8377H59.4769L54.8913 41.5737ZM57.5124 20.555C56.7606 20.555 56.079 20.3359 55.4741 19.8969C54.8644 19.4606 54.5624 18.789 54.5624 17.8838C54.5624 17.3859 54.6658 16.9188 54.8707 16.478C55.0787 16.0382 55.3506 15.6595 55.6912 15.3375C56.0313 15.0182 56.4254 14.7631 56.873 14.5709C57.3232 14.3817 57.8022 14.2872 58.3127 14.2872C59.064 14.2872 59.742 14.5062 60.3491 14.9452C60.9539 15.3864 61.2581 16.058 61.2581 16.9584C61.2581 17.458 61.1552 17.9269 60.9485 18.3667C60.7432 18.8066 60.4713 19.1853 60.1307 19.5072C59.7933 19.827 59.3956 20.0812 58.9489 20.2717C58.4983 20.4639 58.021 20.555 57.5124 20.555ZM64.1973 18.1697L69.8389 17.3142L68.4535 22.8369H74.4955L73.4044 27.1816H67.3989L65.7992 33.7353C65.6519 34.2816 65.5683 34.7918 65.5449 35.266C65.5184 35.7423 65.58 36.1514 65.7256 36.4958C65.8702 36.841 66.1304 37.1071 66.5079 37.2954C66.8835 37.4867 67.4214 37.583 68.1269 37.583C68.7079 37.583 69.274 37.5289 69.8214 37.4216C70.3655 37.3161 70.9169 37.1692 71.475 36.9769L71.8767 41.0393C71.1487 41.3006 70.3606 41.5254 69.5113 41.7145C68.6607 41.9063 67.6537 41.9986 66.4899 41.9986C64.8165 41.9986 63.5193 41.7554 62.595 41.2711C61.672 40.7833 61.0195 40.117 60.6291 39.2734C60.244 38.4328 60.0719 37.4639 60.1199 36.3722C60.1698 35.2778 60.3383 34.1276 60.6291 32.9163L64.1973 18.1697ZM74.2582 34.092C74.2582 32.4782 74.5251 30.9564 75.0585 29.5317C75.591 28.1057 76.358 26.8588 77.3533 25.7886C78.345 24.7238 79.5533 23.8802 80.9755 23.2609C82.3909 22.6451 83.9758 22.3346 85.7224 22.3346C86.8157 22.3346 87.7921 22.4357 88.6512 22.6385C89.514 22.843 90.2945 23.1074 91.0004 23.439L89.1428 27.5735C88.6576 27.3809 88.1538 27.2111 87.633 27.0572C87.1118 26.9001 86.4755 26.8245 85.7229 26.8245C83.925 26.8245 82.5037 27.431 81.446 28.6402C80.3923 29.8502 79.8616 31.4789 79.8616 33.522C79.8616 34.7329 80.1285 35.712 80.6641 36.461C81.197 37.2101 82.1815 37.5826 83.6109 37.5826C84.3164 37.5826 84.9972 37.5105 85.6492 37.3697C86.3061 37.2272 86.8862 37.0478 87.3971 36.8358L87.7993 41.0741C87.1181 41.3327 86.3668 41.5663 85.5427 41.7708C84.7168 41.9683 83.7336 42.0708 82.5936 42.0708C81.0887 42.0708 79.8148 41.8552 78.7728 41.4308C77.7303 40.9998 76.8689 40.4275 76.1904 39.7027C75.5083 38.976 75.0185 38.1276 74.7156 37.1538C74.4128 36.1808 74.2582 35.1586 74.2582 34.092ZM98.186 42.0708C96.9004 42.0708 95.7837 41.879 94.8365 41.4994C93.892 41.1198 93.1097 40.5872 92.4909 39.8966C91.8713 39.2096 91.4075 38.3954 91.0899 37.4573C90.7722 36.5195 90.6194 35.481 90.6194 34.3432C90.6194 32.9159 90.8535 31.489 91.3267 30.0661C91.7976 28.6402 92.4963 27.3589 93.4211 26.2201C94.3386 25.0796 95.4705 24.1472 96.8033 23.4201C98.1347 22.6979 99.6661 22.3346 101.386 22.3346C102.648 22.3346 103.759 22.5268 104.719 22.9064C105.675 23.2851 106.462 23.8221 107.085 24.5091C107.7 25.1997 108.168 26.0103 108.483 26.9498C108.8 27.8858 108.956 28.9269 108.956 30.0657C108.956 31.4886 108.725 32.9154 108.267 34.3427C107.808 35.763 107.127 37.0473 106.228 38.1887C105.331 39.3275 104.21 40.2595 102.863 40.9835C101.517 41.7075 99.9573 42.0708 98.186 42.0708ZM100.878 26.8249C100.08 26.8249 99.3736 27.0519 98.7692 27.5001C98.1626 27.9536 97.653 28.5236 97.2423 29.2111C96.8271 29.9016 96.5193 30.6546 96.3113 31.4732C96.105 32.2935 96.0039 33.0689 96.0039 33.8057C96.0039 34.9946 96.1998 35.9204 96.5849 36.5868C96.9754 37.2496 97.6768 37.583 98.6964 37.583C99.4976 37.583 100.2 37.3578 100.808 36.9048C101.411 36.4548 101.921 35.8844 102.335 35.1956C102.747 34.5085 103.058 33.7533 103.266 32.9335C103.469 32.1158 103.573 31.336 103.573 30.6005C103.573 29.4147 103.378 28.4866 102.989 27.8212C102.601 27.1583 101.897 26.8249 100.878 26.8249ZM114.825 41.5737H109.434L113.983 22.8377H119.409L114.825 41.5737ZM117.442 20.555C116.691 20.555 116.01 20.3359 115.406 19.8969C114.799 19.4606 114.495 18.789 114.495 17.8838C114.495 17.3859 114.599 16.9188 114.805 16.478C115.01 16.0382 115.284 15.6595 115.624 15.3375C115.963 15.0182 116.36 14.7631 116.807 14.5709C117.254 14.3817 117.733 14.2872 118.242 14.2872C118.995 14.2872 119.676 14.5062 120.281 14.9452C120.887 15.3864 121.193 16.058 121.193 16.9584C121.193 17.458 121.085 17.9269 120.881 18.3667C120.678 18.8066 120.404 19.1853 120.065 19.5072C119.723 19.827 119.33 20.0812 118.883 20.2717C118.432 20.4639 117.954 20.555 117.442 20.555ZM123.291 23.6897C123.7 23.5727 124.156 23.432 124.653 23.2789C125.151 23.1258 125.708 22.9833 126.33 22.8549C126.945 22.7225 127.639 22.6152 128.403 22.532C129.166 22.4472 130.036 22.4058 131.003 22.4058C133.843 22.4058 135.802 23.2156 136.883 24.8302C137.963 26.4449 138.15 28.6547 137.449 31.4556L134.971 41.572H129.549L131.951 31.6685C132.097 31.0501 132.212 30.4523 132.297 29.8682C132.383 29.2894 132.378 28.7791 132.278 28.3375C132.182 27.9012 131.957 27.5441 131.607 27.2674C131.251 26.9951 130.714 26.8583 129.986 26.8583C129.283 26.8583 128.569 26.9322 127.84 27.0747L124.309 41.5715H118.885L123.291 23.6897Z" fill="#E1E1E1"/>
</svg>

<svg width="138" height="56" viewBox="0 0 138 56" fill="none" xmlns="http://www.w3.org/2000/svg"><path d="M28.46 31.405c-1.92 7.54-9.722 12.129-17.426 10.249C3.333 39.774-1.355 32.136.566 24.596c1.92-7.54 9.722-12.13 17.424-10.25 7.704 1.88 12.391 9.518 10.47 17.059Z" fill="#F7931A"/><path d="M20.853 25.995c.286-1.873-1.17-2.88-3.162-3.552l.646-2.537-1.578-.385-.629 2.47c-.415-.1-.84-.196-1.264-.29l.634-2.487-1.577-.385-.647 2.536c-.343-.076-.68-.152-1.007-.232l.002-.008-2.176-.531-.42 1.65s1.17.262 1.146.278c.639.156.755.57.735.898l-.736 2.89c.044.011.101.027.164.052l-.166-.04-1.032 4.048c-.078.19-.277.475-.723.367.015.022-1.147-.28-1.147-.28l-.783 1.767 2.053.502c.382.093.756.191 1.125.284l-.653 2.566 1.576.385.646-2.54c.43.115.848.22 1.257.32l-.644 2.527 1.578.385.653-2.561c2.69.498 4.713.297 5.564-2.085.686-1.917-.034-3.024-1.45-3.745 1.032-.233 1.808-.896 2.015-2.267Zm-3.605 4.947c-.487 1.918-3.786.881-4.855.621l.866-3.4c1.07.262 4.5.78 3.99 2.78Zm.488-4.975c-.444 1.744-3.19.858-4.08.64l.785-3.083c.89.218 3.759.623 3.295 2.443Z" fill="#fff"/><path d="M42.274 22.44c1.166 0 2.173.205 3.02.607.85.405 1.552.951 2.115 1.639.556.69.97 1.497 1.236 2.422.265.928.398 1.925.398 2.992 0 1.64-.307 3.19-.926 4.65a12.034 12.034 0 0 1-2.53 3.813 11.906 11.906 0 0 1-3.786 2.562c-1.452.63-3.032.944-4.728.944-.219 0-.604-.006-1.15-.017a17.161 17.161 0 0 1-1.87-.158 22.374 22.374 0 0 1-2.24-.43 11.38 11.38 0 0 1-2.239-.784l6.296-25.896 5.64-.855-2.255 9.19a8.886 8.886 0 0 1 1.454-.498 6.588 6.588 0 0 1 1.565-.18Zm-4.73 15.25c.849 0 1.649-.204 2.4-.606a6.288 6.288 0 0 0 1.95-1.62 8.125 8.125 0 0 0 1.291-2.3 7.684 7.684 0 0 0 .474-2.673c0-1.14-.195-2.029-.582-2.671-.388-.64-1.106-.962-2.148-.962-.341 0-.781.064-1.327.178a3.339 3.339 0 0 0-1.476.75l-2.4 9.759c.145.025.273.049.382.071.107.024.225.041.343.053.124.014.267.02.439.02l.653.001Zm17.347 3.884h-5.386l4.549-18.736h5.423L54.89 41.574Zm2.621-21.019a3.39 3.39 0 0 1-2.038-.658c-.61-.436-.912-1.108-.912-2.013 0-.498.104-.965.309-1.406.208-.44.48-.819.82-1.14.34-.32.734-.575 1.182-.767.45-.19.93-.284 1.44-.284.751 0 1.429.22 2.036.658.605.441.91 1.113.91 2.013 0 .5-.104.969-.31 1.409-.206.44-.478.818-.818 1.14-.338.32-.735.574-1.182.765-.45.192-.928.283-1.437.283Zm6.685-2.385 5.642-.856-1.385 5.523h6.042l-1.092 4.345H67.4l-1.6 6.553a7.276 7.276 0 0 0-.254 1.531c-.027.476.035.885.18 1.23s.405.611.783.8c.376.19.913.287 1.619.287a8.8 8.8 0 0 0 1.694-.161 12.201 12.201 0 0 0 1.654-.445l.402 4.062c-.728.262-1.516.486-2.366.675-.85.192-1.857.285-3.021.285-1.673 0-2.97-.244-3.895-.728-.923-.488-1.575-1.154-1.966-1.998-.385-.84-.557-1.81-.51-2.9.05-1.095.22-2.245.51-3.457l3.568-14.746Zm10.061 15.922c0-1.614.267-3.136.8-4.56a11.176 11.176 0 0 1 2.295-3.743c.992-1.065 2.2-1.909 3.623-2.528 1.415-.616 3-.926 4.746-.926 1.094 0 2.07.1 2.93.303.862.205 1.642.47 2.348.801l-1.857 4.134a17.638 17.638 0 0 0-1.51-.516c-.521-.157-1.157-.232-1.91-.232-1.798 0-3.22.606-4.277 1.815-1.054 1.21-1.584 2.839-1.584 4.882 0 1.21.267 2.19.802 2.939.533.75 1.517 1.122 2.947 1.122.705 0 1.386-.072 2.038-.213a10.2 10.2 0 0 0 1.748-.534l.402 4.238a19.8 19.8 0 0 1-2.256.697c-.826.197-1.81.3-2.95.3-1.504 0-2.778-.216-3.82-.64-1.043-.431-1.904-1.003-2.583-1.728a6.48 6.48 0 0 1-1.474-2.55 10.254 10.254 0 0 1-.458-3.061Zm23.928 7.979c-1.286 0-2.402-.192-3.35-.572-.944-.38-1.726-.912-2.345-1.602-.62-.687-1.084-1.502-1.401-2.44-.318-.938-.47-1.976-.47-3.114 0-1.427.233-2.854.707-4.277a12.028 12.028 0 0 1 2.094-3.846 11.126 11.126 0 0 1 3.382-2.8c1.332-.722 2.863-1.085 4.583-1.085 1.262 0 2.373.192 3.333.571.956.38 1.743.916 2.366 1.603a6.937 6.937 0 0 1 1.398 2.44c.317.937.473 1.978.473 3.117 0 1.423-.231 2.85-.689 4.277a12.258 12.258 0 0 1-2.039 3.846c-.897 1.139-2.018 2.07-3.365 2.794-1.346.725-2.906 1.088-4.677 1.088Zm2.692-15.246c-.798 0-1.504.227-2.109.675a5.86 5.86 0 0 0-1.527 1.711 8.342 8.342 0 0 0-.93 2.262 9.554 9.554 0 0 0-.308 2.333c0 1.189.196 2.114.58 2.78.391.664 1.093.997 2.112.997.802 0 1.504-.225 2.112-.678a5.89 5.89 0 0 0 1.527-1.71 8.384 8.384 0 0 0 .931-2.261 9.711 9.711 0 0 0 .307-2.333c0-1.186-.195-2.114-.584-2.78-.388-.663-1.092-.996-2.111-.996Zm13.947 14.749h-5.391l4.549-18.736h5.426l-4.584 18.736Zm2.617-21.019c-.751 0-1.432-.22-2.036-.658-.607-.436-.911-1.108-.911-2.013 0-.498.104-.965.31-1.406.205-.44.479-.819.819-1.14.339-.32.736-.575 1.183-.767.447-.19.926-.284 1.435-.284a3.39 3.39 0 0 1 2.039.658c.606.441.912 1.113.912 2.013 0 .5-.108.969-.312 1.409a3.69 3.69 0 0 1-.816 1.14 4.02 4.02 0 0 1-1.182.765 3.625 3.625 0 0 1-1.441.283Zm5.849 3.135c.409-.117.865-.258 1.362-.411a18.32 18.32 0 0 1 1.677-.424 20.47 20.47 0 0 1 2.073-.323 23.817 23.817 0 0 1 2.6-.126c2.84 0 4.799.81 5.88 2.424 1.08 1.615 1.267 3.825.566 6.626l-2.478 10.116h-5.422l2.402-9.904a20.97 20.97 0 0 0 .346-1.8c.086-.579.081-1.089-.019-1.53a1.829 1.829 0 0 0-.671-1.07c-.356-.273-.893-.41-1.621-.41-.703 0-1.417.074-2.146.217l-3.531 14.497h-5.424l4.406-17.882Z" fill="#E1E1E1"/></svg>
